X:1
T:Cantabo Domino
T:Cantabo Domino
T:Teofilo Gargario
C:Teofilo Gargario
%%score [ 1 2 ] 3
L:1/8
Q:1/4=120
M:4/4
K:F
V:1 treble nm="Soprano" snm="S"
V:2 bass nm="Bass" snm="B"
V:3 bass nm="BC" snm="BC"
V:1
"^Source: Selectae Cantiones---LiberI---Roma---B.Zannettum--1616.\nEditor: André Vierendeels (04/12/08)\n" d8 G4 G4 | %1
w: Can- ta- bo|
 B6 c2 d4 A4 | A4 A4 B2 A2 B2 c2 | d4 B4 A8- | A8 z8 | A8 D4 D4 | F6 G2 A4 E4 | E4 E4 F2 E2 F2 G2 | %8
w: Do- mi- no in|vi- ta me- * * *|* * a,|_|Can- ta- bo|Do- mi- no in|vi- ta me- * * *|
 A2 B2 c2 A2 B2 c2 d4- | d4 ^c4 d8 | z4 d4 c6 B2 | A8 D8 | z4 d4 c4 B4 | A8 G8 | %14
w: |* * a,|in vi- ta|me- a,|in vi- ta|me- a.|
 d2 d2 c2 G2 B4 A4 | z2 B2 B2 A2 G4 z4 | e2 e2 d2 B2 c4 B4 | z4 z2 d2 d2 c2 B4 | z4 z2 G4 c4 B2 | %19
w: Psal- lam De- o me- o,|quam- di- u sum|Psal- lam De- o me- o|quam di- u sum|quam di- *|
 A2 G2 F8 G4- | G4 ^F4 G8- | G8 z8 | z16 | z8 A8- | A4 A4 B8 | A8 z4 G4- | G4 G4 _e8 | %27
w: |* u sum|_||E-|* go ve-|ro, e-|* go ve-|
 d8 z4 G2 A2 | B4 G2 d2 d>ed>c B>cA>B | c>dc>B A>BG>A B>cB>A G>AF>G | A2"^#" G4 F2 G8 | z16 | z16 | %33
w: ro de- lec-|ta- bor in Do- * * * * * * *||* * mi no|||
 z16 | z4 B2 c2 d4 B4 | z4 d4 c>dc>B A>BG>A | B>cB>A G>AF>G A>GA>B c>Bc>A | %37
w: |de- lec- ta- bor|in Do- * * * * * * *||
 B>AB>c d>cd>B ^c2 d4 c2 | d8 z4 A2 B2 | c8 G8 | z4 d2 e2 f8 | c8 z8 | z16 | z8 z4 c4 | %44
w: * * * * * * * * * * mi-|no, de- lec-|ta- bor|de- lec- ta-|bor||in|
 cBcA BABG AGAF GFGE | FEFD E3 E D4 d4 | dcdB cBcA BABG AGAF | GFGA B2 AG ^F2 G4 F2 | G16 |] %49
w: Do- * * * * * * * * * * * * * * *|* * * * * mi- no, in|Do- * * * * * * * * * * * * * * *|* * * * * * * * * mi-|no.|
V:2
 z16 | z16 | D,8 G,,4 G,,4 | B,,6 C,2 D,4 D,4 | D,4 D,4 F,2 E,2 F,2 G,2 | A,2 B,2 C2 A,2 B,8- | %6
w: ||Can- ta- bo|Do- mi- no in|vi- ta me- * * *||
 B,8 A,8- | A,8 z8 | z16 | A,8 D,4 D,4 | F,6 G,2 A,4 A,,4 | A,,4 A,,4 B,,2 A,,2 B,,2 C,2 | %12
w: * a,|_||Can- ta- bo|Do- mi- no in|vi- ta me- * * *|
 D,2 E,2 F,2 D,2 E,2 F,2 G,4- | G,4 ^F,4 G,8 | z8 G,2 G,2 F,2 D,2 | _E,4 D,4 z2 E,2 E,2 D,2 | %16
w: |* * a.|Psal- lam De- o|me- o- quam di- u|
 C,4 z8 B,2 B,2 | A,2 F,2 G,4 F,4 z2 G,2 | G,2 F,2 _E,4 C,4 F,4- | F,2 E,2 D,2 C,2 B,,6 C,2 | %20
w: sum Psal- lam|De- o me- o quam|di- u sum,quam _ di-||
 D,4 D,4 G,,8 | z8 G,8- | G,4 G,4 B,8 | A,8 z8 | D,12 D,4 | F,8 E,6 F,2 | G,8 z4 C,4- | %27
w: * u sum.|E-|* go ve-|ro,|e- go|ve- * *|ro, e-|
 C,4 =B,,4 C,8 | G,8 z8 | z16 | z8 z4 G,2 A,2 | B,4 G,2 B,2 A,>B,A,>G, F,>G,E,>F, | %32
w: * go ve-|ro||de- lec-|ta- bor in Do- * * * * * * *|
 G,>A,G,>F, E,>F,D,>E, F,>G,F,>E, D,>E,C,>D, | _E,2 D,C, B,,C,D,E, F,6 F,2 | B,,8 z4 G,2 A,2 | %35
w: |* * * * * * * * mi-|no de- lec-|
 B,4 G,2 B,2 A,>B,A,>G, F,>G,E,>F, | G,>A,G,>F, E,>F,D,>E, F,>E,F,>G, A,>G,A,>F, | %37
w: ta- bor in Do- * * * * * * *||
 G,>F,G,>A, B,>A,B,>G, A,6 A,2 | D,4 D,2 E,2 F,8 | C,8 z4 G,2 A,2 | B,8 F,8 | %41
w: * * * * * * * * * mi-|no, de- lec- ta-|or, de- lec-|ta- bor|
 z4 F,4 F,E,F,D, _E,D,E,C, | D,C,D,B,, C,B,,C,A,, B,,A,,B,,G,, A,,G,,A,,F,, | C,6 C,2 F,,8 | z16 | %45
w: in Do- * * * * * * *||* mi- no||
 z8 z4 B,4 | B,A,B,G, A,G,A,F, G,F,G,E, F,E,F,D, | E,D,E,F, G,2 F,E, D,2 C,2 D,3 D, | G,,16 |] %49
w: in|Do- * * * * * * * * * * * * * * *|* * * * * * * * * * mi-|no.|
V:3
 G,8 _E,8- | E,4 E,4 D,8- | D,8 G,,8 | B,,6 C,2 D,8- | D,4 D,4 F,6 G,2 | A,4 A,4 B,8- | B,8 A,8- | %7
 A,8 D,6 E,2 | F,2 G,2 A,2 F,2 G,4 B,4 | A,8 D,8 | F,6 G,2 A,4 A,,4- | %11
"^b""^b" A,,4 A,,4 B,,2 A,,2 B,,2 C,2 | D,2 E,2 F,2 D,2 E,2 F,2 G,4 | D,8 G,,4 F,2 F,2 | %14
 F,2 D,2 _E,4 G,2 G,2 F,2 D,2 | _E,4"^6 5" D,4 E,4 E,2 D,2 | C,4 G,4 A,4 B,4 | %17
 A,2 F,2 G,4 F,4 G,4- | G,2 F,2 _E,4 C,4 F,4- | F,2 E,2"^5  6" D,2 C,2 B,,6 C,2 | %20
"^4    3" D,8 G,,8- | G,,8 G,8- | G,4 G,4 B,8 | A,6 G,2 F,2 E,2 D,4 | D,16 | F,8 E,6 F,2 | %26
 G,8"^b" z4 C,4- | C,4 =B,,4 C,8 | G,,4 G,4 B,4 G,4 | A,4 F,4 G,4 _E,4 | D,8 G,,4 G,2 A,2 | %31
 B,4 G,2 B,2 A,4 F,4 | G,4 E,4 F,4 D,4 | _E,4 B,,4 F,,8 | B,,8 B,4 G,2 A,2 | B,4 G,2 B,2 A,4 F,4 | %36
 G,4 E,4 F,4 A,4 | G,4 B,4 A,8 | D,4 D,2 E,2 F,8 | C,8 G,6 A,2 | B,8 F,8- | F,4 F,4 F,4 _E,4 | %42
 D,4 C,4 B,,4 A,,2 F,,2 | C,8 F,,4 F,4 | A,4 G,4 F,4 E,4 | D,2 B,,2 G,,2 A,,2 B,,8 | %46
 B,,4 F,4 G,4 F,2 D,2 | %47
"^Notes: original keys: Ut 1st, Fa 4rth, Fa 4rth\n            editorial accidentals above the staff\n" E,2 F,2 G,2 F,E, D,2 C,2 D,4 | %48
 G,,16 |] %49

